Obsidian-SemiLight/actions/22s/split.svg

<svg viewBox="0 0 22 22" xmlns="http://www.w3.org/2000/svg"><path d="m16 3v2h-7-1v5h-5v2h5v5h1 7v2l3-2.5-3-2.5v2h-7v-4-2-4h7v2l3-2.5z" fill="#4d4d4d"/></svg>

<svg xmlns="http://www.w3.org/2000/svg" viewBox="0 0 22 22">
  <defs id="defs3051">
    <style type="text/css" id="current-color-scheme">
      .ColorScheme-Text {
        color:#4d4d4d;
      }
      </style>
  </defs>
 <path 
     style="fill:currentColor;fill-opacity:1;stroke:none" 
     d="M 16 3 L 16 5 L 9 5 L 8 5 L 8 10 L 3 10 L 3 12 L 8 12 L 8 17 L 9 17 L 16 17 L 16 19 L 19 16.5 L 16 14 L 16 16 L 9 16 L 9 12 L 9 10 L 9 6 L 16 6 L 16 8 L 19 5.5 L 16 3 z "
	 class="ColorScheme-Text"
     />
</svg>
